_icons/SVG/223-remoraid.svg

<svg xmlns="http://www.w3.org/2000/svg" width="32" height="32"><path fill="#EDEEEE" d="M11.495 20.609c3.204 1.18 6.635-.141 6.846.522.146.459-.573.814-.633 1.448-.096 1.007.328.81.376 3.339.03 1.568.088 1.294-.063 2.5-.127 1.017 1.91 1.211 1.771 2.604-.042.416-.146.978-.917.978-1.269 0-4.684-.254-4.98-4.991-.094-1.506-2.4-3.934-2.4-6.4z"/><path fill="#E3E5E5" d="M16 21.292c3.708 0 7.458.458 7.333 2.458-.204 3.257-3.508 2.88-3.917 4.583-.25 1.042 1.135 2.385.188 3.333-.111.112-3.604-1.104-3.604-6.645v-3.729zm0-8.741c.241 0 .482-.158.622-.474C18.122 8.684 21.432 0 16 0v12.551z"/><path fill="#EDEEEE" d="M15.378 12.077c.14.316.381.474.622.474V0c-5.432 0-2.122 8.684-.622 12.077z"/><path fill="#C8DAC8" d="M15.57 1.697c-.478.817-1.217 2.219-1.512 3.495C9.465 6.096 6 10.142 6 15c0 5.523 4.477 10 10 10V1.449a.495.495 0 00-.43.248z"/><path fill="#BAD3C1" d="M17.942 5.192c-.295-1.276-1.034-2.679-1.512-3.495a.495.495 0 00-.43-.248V25c5.523 0 10-4.477 10-10 0-4.858-3.465-8.904-8.058-9.808z"/><path fill="#0E616D" d="M8.062 14.469c.057-.264-.644-1-1.855-1.466-.085.42-.145.848-.175 1.285 1.12.395 1.944.585 2.03.181zm-.218-2.375c.042-.195-.333-.648-1.017-1.06-.152.352-.285.713-.397 1.084.796.242 1.344.301 1.414-.024z"/><path fill="#005865" d="M23.949 14.469c-.057-.264.644-1 1.855-1.466.085.42.145.848.175 1.285-1.12.395-1.944.585-2.03.181zm.218-2.375c-.042-.195.333-.648 1.017-1.06.152.352.285.713.397 1.084-.796.242-1.344.301-1.414-.024z"/><path fill="#F7F7F7" d="M17.792 15.365l.72 2.752a.239.239 0 01-.221.33h-1.518a.239.239 0 01-.221-.33l.72-2.752a.28.28 0 01.52 0z"/><path fill="#FFF" d="M14.729 15.365l.72 2.752a.239.239 0 01-.221.33H13.71a.239.239 0 01-.221-.33l.72-2.752a.28.28 0 01.52 0z"/><path fill="#AFC9B7" d="M25.984 15.324C25.811 20.695 21.414 25 16 25v-9c1 0 2 1 2 1 3.776 0 6.379-.872 7.984-1.676z"/><path fill="#E3E5E5" d="M24.697 19.726a.497.497 0 010-.86c1.77-1.037 6.303-3.325 6.303.43s-4.533 1.467-6.303.43z"/><ellipse fill="#F7F7F7" cx="21.263" cy="16" rx="2" ry="3"/><ellipse fill="#2B3332" cx="21.263" cy="16" rx="1" ry="2"/><circle fill="#F7F7F7" cx="21.263" cy="15" r=".5"/><path fill="#BAD3C1" d="M6.016 15.324C6.189 20.695 10.586 25 16 25v-9c-1 0-2 1-2 1-3.776 0-6.379-.872-7.984-1.676z"/><path fill="#EDEEEE" d="M7.303 19.726a.497.497 0 000-.86C5.533 17.829 1 15.541 1 19.296s4.533 1.467 6.303.43z"/><ellipse fill="#FFF" cx="10.737" cy="16" rx="2" ry="3"/><ellipse fill="#373F3F" cx="10.737" cy="16" rx="1" ry="2"/><circle fill="#FFF" cx="10.737" cy="15" r=".5"/></svg>

<?xml version="1.0" encoding="utf-8"?>
<!-- Generator: Adobe Illustrator 23.0.6, SVG Export Plug-In . SVG Version: 6.00 Build 0)  -->
<svg version="1.1" xmlns="http://www.w3.org/2000/svg" xmlns:xlink="http://www.w3.org/1999/xlink" x="0px" y="0px" width="32px"
	 height="32px" viewBox="0 0 32 32" enable-background="new 0 0 32 32" xml:space="preserve">
<g id="labels">
	<g>
	</g>
</g>
<g id="icons">
	<g>
		<path fill="#EDEEEE" d="M11.495,20.609c3.204,1.18,6.635-0.141,6.846,0.522c0.146,0.459-0.573,0.814-0.633,1.448
			c-0.096,1.007,0.328,0.81,0.376,3.339c0.03,1.568,0.088,1.294-0.063,2.5c-0.127,1.017,1.91,1.211,1.771,2.604
			C19.75,31.438,19.646,32,18.875,32c-1.269,0-4.684-0.254-4.98-4.991C13.801,25.503,11.495,23.075,11.495,20.609z"/>
		<path fill="#E3E5E5" d="M16,21.292c3.708,0,7.458,0.458,7.333,2.458c-0.204,3.257-3.508,2.88-3.917,4.583
			c-0.25,1.042,1.135,2.385,0.188,3.333C19.493,31.778,16,30.562,16,25.021V21.292z"/>
		<path fill="#E3E5E5" d="M16,12.551c0.241,0,0.482-0.158,0.622-0.474C18.122,8.684,21.432,0,16,0V12.551z"/>
		<path fill="#EDEEEE" d="M15.378,12.077c0.14,0.316,0.381,0.474,0.622,0.474V0C10.568,0,13.878,8.684,15.378,12.077z"/>
		<path fill="#C8DAC8" d="M15.57,1.697c-0.478,0.817-1.217,2.219-1.512,3.495C9.465,6.096,6,10.142,6,15c0,5.523,4.477,10,10,10
			V1.449C15.833,1.449,15.667,1.532,15.57,1.697z"/>
		<path fill="#BAD3C1" d="M17.942,5.192c-0.295-1.276-1.034-2.679-1.512-3.495C16.333,1.532,16.167,1.449,16,1.449V25
			c5.523,0,10-4.477,10-10C26,10.142,22.535,6.096,17.942,5.192z"/>
		<path fill="#0E616D" d="M8.062,14.469c0.057-0.264-0.644-1-1.855-1.466c-0.085,0.42-0.145,0.848-0.175,1.285
			C7.152,14.683,7.976,14.873,8.062,14.469z"/>
		<path fill="#0E616D" d="M7.844,12.094c0.042-0.195-0.333-0.648-1.017-1.06c-0.152,0.352-0.285,0.713-0.397,1.084
			C7.226,12.36,7.774,12.419,7.844,12.094z"/>
		<path fill="#005865" d="M23.949,14.469c-0.057-0.264,0.644-1,1.855-1.466c0.085,0.42,0.145,0.848,0.175,1.285
			C24.859,14.683,24.035,14.873,23.949,14.469z"/>
		<path fill="#005865" d="M24.167,12.094c-0.042-0.195,0.333-0.648,1.017-1.06c0.152,0.352,0.285,0.713,0.397,1.084
			C24.785,12.36,24.237,12.419,24.167,12.094z"/>
		<path fill="#F7F7F7" d="M17.792,15.365l0.72,2.752c0.065,0.158-0.051,0.33-0.221,0.33h-1.518c-0.17,0-0.286-0.173-0.221-0.33
			l0.72-2.752C17.366,15.132,17.696,15.132,17.792,15.365z"/>
		<path fill="#FFFFFF" d="M14.729,15.365l0.72,2.752c0.065,0.158-0.051,0.33-0.221,0.33H13.71c-0.17,0-0.286-0.173-0.221-0.33
			l0.72-2.752C14.304,15.132,14.634,15.132,14.729,15.365z"/>
		<path fill="#AFC9B7" d="M25.984,15.324C25.811,20.695,21.414,25,16,25v-9c1,0,2,1,2,1C21.776,17,24.379,16.128,25.984,15.324z"/>
		<path fill="#E3E5E5" d="M24.697,19.726c-0.33-0.193-0.33-0.666,0-0.86C26.467,17.829,31,15.541,31,19.296
			S26.467,20.763,24.697,19.726z"/>
		<g>
			<ellipse fill="#F7F7F7" cx="21.263" cy="16" rx="2" ry="3"/>
			<ellipse fill="#2B3332" cx="21.263" cy="16" rx="1" ry="2"/>
			<circle fill="#F7F7F7" cx="21.263" cy="15" r="0.5"/>
		</g>
		<path fill="#BAD3C1" d="M6.016,15.324C6.189,20.695,10.586,25,16,25v-9c-1,0-2,1-2,1C10.224,17,7.621,16.128,6.016,15.324z"/>
		<path fill="#EDEEEE" d="M7.303,19.726c0.33-0.193,0.33-0.666,0-0.86C5.533,17.829,1,15.541,1,19.296S5.533,20.763,7.303,19.726z"
			/>
		<g>
			<ellipse fill="#FFFFFF" cx="10.737" cy="16" rx="2" ry="3"/>
			<ellipse fill="#373F3F" cx="10.737" cy="16" rx="1" ry="2"/>
			<circle fill="#FFFFFF" cx="10.737" cy="15" r="0.5"/>
		</g>
	</g>
</g>
</svg>
